tools/download-figma-icons/icons/outlined-large/regenerative-energy.svg

<svg width="65" height="64" viewBox="0 0 65 64" fill="none" xmlns="http://www.w3.org/2000/svg">
<path fill-rule="evenodd" clip-rule="evenodd" d="M54.5596 9.2342C42.6186 -2.6038 23.4736 -3.0348 11.0006 7.9292V2.5002C11.0006 1.6722 10.3296 1.0002 9.50061 1.0002C8.67261 1.0002 8.00061 1.6722 8.00061 2.5002V11.5002C8.00061 12.3282 8.67261 13.0002 9.50061 13.0002H18.5006C19.3296 13.0002 20.0006 12.3282 20.0006 11.5002C20.0006 10.6712 19.3296 10.0002 18.5006 10.0002H13.1966C24.4986 0.255196 41.6966 0.705195 52.4466 11.3652C58.2016 17.0712 61.3196 24.9342 61.0016 32.9402C60.8916 35.7412 60.1966 39.0342 59.0956 41.9742C58.8056 42.7502 59.1996 43.6142 59.9756 43.9052C60.1486 43.9692 60.3266 44.0002 60.5006 44.0002C61.1086 44.0002 61.6806 43.6282 61.9066 43.0252C63.1136 39.7982 63.8766 36.1662 63.9996 33.0592C64.3506 24.2142 60.9096 15.5312 54.5596 9.2342ZM54.501 50.9998H45.501C44.673 50.9998 44.001 51.6718 44.001 52.4998C44.001 53.3278 44.673 53.9998 45.501 53.9998H50.808C39.52 63.7438 22.344 63.2948 11.608 52.6358C5.99601 47.0638 2.93901 39.7398 3.00101 32.0118C3.02601 28.7578 3.72001 25.1218 4.90101 22.0368C5.19801 21.2628 4.81201 20.3958 4.03801 20.0998C3.26401 19.8008 2.39701 20.1888 2.10101 20.9628C0.775009 24.4208 0.0300087 28.3368 0.00100874 31.9878C-0.0669913 40.5298 3.30501 48.6188 9.49501 54.7648C15.687 60.9108 23.818 63.9838 31.951 63.9838C39.483 63.9838 47.011 61.3428 53.001 56.0708V61.4998C53.001 62.3278 53.673 62.9998 54.501 62.9998C55.329 62.9998 56.001 62.3278 56.001 61.4998V52.4998C56.001 51.6718 55.329 50.9998 54.501 50.9998ZM31.0013 47.7398L43.6163 29.9998H34.5013C33.6733 29.9998 33.0013 29.3278 33.0013 28.4998V16.2598L20.3873 33.9968L29.5013 33.9998C30.3293 33.9998 31.0013 34.6718 31.0013 35.4998V47.7398ZM30.7783 14.2098C31.4513 13.2038 32.7463 12.7538 33.9773 13.1298C35.1873 13.4968 36.0013 14.5698 36.0013 15.8008V26.9998H44.2003C45.2823 26.9998 46.2433 27.5418 46.7103 28.4148C47.1553 29.2488 47.0863 30.2468 46.5253 31.0838L33.2233 49.7898C32.7103 50.5588 31.8343 51.0008 30.8993 51.0008C30.6103 51.0008 30.3153 50.9588 30.0243 50.8698C28.8143 50.5028 28.0013 49.4298 28.0013 48.1988V36.9998H19.8023C18.7203 36.9998 17.7593 36.4578 17.2923 35.5848C16.8463 34.7508 16.9163 33.7528 17.4763 32.9158L30.7783 14.2098Z" fill="black"/>
</svg>

<svg xmlns="http://www.w3.org/2000/svg" width="65" height="64" fill="none" viewBox="0 0 65 64"><path fill="currentColor" fill-rule="evenodd" d="M54.56 9.234C42.619-2.604 23.474-3.035 11 7.93V2.5a1.5 1.5 0 1 0-3 0v9A1.5 1.5 0 0 0 9.5 13h9a1.5 1.5 0 1 0 0-3h-5.303c11.302-9.745 28.5-9.295 39.25 1.365 5.755 5.706 8.873 13.57 8.555 21.575-.11 2.801-.805 6.094-1.906 9.034a1.501 1.501 0 0 0 2.81 1.051c1.208-3.227 1.97-6.859 2.094-9.966.35-8.845-3.09-17.528-9.44-23.825M54.5 51h-9a1.5 1.5 0 0 0 0 3h5.307c-11.288 9.744-28.464 9.295-39.2-1.364C5.995 47.064 2.938 39.74 3 32.012c.025-3.254.719-6.89 1.9-9.975a1.5 1.5 0 0 0-.863-1.937 1.496 1.496 0 0 0-1.937.863C.775 24.42.03 28.337.001 31.988c-.068 8.542 3.304 16.63 9.494 22.777 6.192 6.146 14.323 9.219 22.456 9.219 7.532 0 15.06-2.641 21.05-7.913V61.5a1.5 1.5 0 0 0 3 0v-9a1.5 1.5 0 0 0-1.5-1.5m-23.5-3.26L43.616 30h-9.115a1.5 1.5 0 0 1-1.5-1.5V16.26L20.387 33.997l9.114.003a1.5 1.5 0 0 1 1.5 1.5zm-.223-33.53c.673-1.006 1.968-1.456 3.2-1.08 1.21.367 2.023 1.44 2.023 2.67V27h8.2c1.081 0 2.042.542 2.51 1.415.444.834.375 1.832-.186 2.669L33.223 49.79C32.71 50.559 31.834 51 30.9 51a3 3 0 0 1-.875-.13c-1.21-.367-2.023-1.44-2.023-2.671v-11.2h-8.199c-1.082 0-2.043-.541-2.51-1.414-.446-.834-.376-1.832.184-2.67z" clip-rule="evenodd"/></svg>
